src/assets/farcaster-square.svg

<svg fill="none" height="14" viewBox="0 0 14 14" width="14" xmlns="http://www.w3.org/2000/svg" xmlns:xlink="http://www.w3.org/1999/xlink"><clipPath id="a"><rect height="14" rx="4" width="14"/></clipPath><g clip-path="url(#a)"><path d="m0 0h14v14h-14z" fill="#855dcd"/><g fill="#fff"><path d="m4.12648 2.9751h5.64349v8.05h-.8284v-3.68742h-.00813c-.09155-1.01912-.94541-1.81774-1.98521-1.81774-1.03981 0-1.89367.79862-1.98522 1.81774h-.00813v3.68742h-.8284z"/><path d="m2.625 4.11768.33654 1.14258h.28476v4.62226c-.14297 0-.25887.11626-.25887.25968v.3116h-.05178c-.14297 0-.25887.1163-.25887.2597v.3116h2.8994v-.3116c0-.1434-.1159-.2597-.25887-.2597h-.05178v-.3116c0-.14342-.1159-.25968-.25887-.25968h-.31065v-5.76484z"/><path d="m8.99334 9.88252c-.14297 0-.25887.11626-.25887.25968v.3116h-.05178c-.14297 0-.25887.1163-.25887.2597v.3116h2.89938v-.3116c0-.1434-.1159-.2597-.2588-.2597h-.0518v-.3116c0-.14342-.1159-.25968-.2589-.25968v-4.62226h.2848l.3365-1.14258h-2.07101v5.76484z"/></g></g></svg>

<svg width="14" height="14" viewBox="0 0 14 14" fill="none" xmlns="http://www.w3.org/2000/svg">
    <g clip-path="url(#clip0_16962_36326)">
        <rect width="14" height="14" fill="#855DCD" />
        <path
            d="M4.12648 2.9751H9.76997V11.0251H8.94157V7.33768H8.93344C8.84189 6.31856 7.98803 5.51994 6.94823 5.51994C5.90842 5.51994 5.05456 6.31856 4.96301 7.33768H4.95488V11.0251H4.12648V2.9751Z"
            fill="white" />
        <path
            d="M2.625 4.11768L2.96154 5.26026H3.2463V9.88252C3.10333 9.88252 2.98743 9.99878 2.98743 10.1422V10.4538H2.93565C2.79268 10.4538 2.67678 10.5701 2.67678 10.7135V11.0251H5.57618V10.7135C5.57618 10.5701 5.46028 10.4538 5.31731 10.4538H5.26553V10.1422C5.26553 9.99878 5.14963 9.88252 5.00666 9.88252H4.69601V4.11768H2.625Z"
            fill="white" />
        <path
            d="M8.99334 9.88252C8.85037 9.88252 8.73447 9.99878 8.73447 10.1422V10.4538H8.68269C8.53972 10.4538 8.42382 10.5701 8.42382 10.7135V11.0251H11.3232V10.7135C11.3232 10.5701 11.2073 10.4538 11.0644 10.4538H11.0126V10.1422C11.0126 9.99878 10.8967 9.88252 10.7537 9.88252V5.26026H11.0385L11.375 4.11768H9.30399V9.88252H8.99334Z"
            fill="white" />
    </g>
    <defs>
        <clipPath id="clip0_16962_36326">
            <rect width="14" height="14" rx="4" fill="white" />
        </clipPath>
    </defs>
</svg>
